ix/ticket-star_linear.svg

<svg viewBox="0 0 24 24" fill="none" xmlns="http://www.w3.org/2000/svg" height="1em" width="1em">
  <path d="M16.9949 4H6.99488C3.16488 4 2.09488 4.92 2.00488 8.5C3.93488 8.5 5.49488 10.07 5.49488 12C5.49488 13.93 3.93488 15.49 2.00488 15.5C2.09488 19.08 3.16488 20 6.99488 20H16.9949C20.9949 20 21.9949 19 21.9949 15V9C21.9949 5 20.9949 4 16.9949 4Z" stroke="#292D32" stroke-width="1.5" stroke-linecap="round" stroke-linejoin="round"/>
  <path d="M8.99316 4V7.5" stroke="#292D32" stroke-width="1.5" stroke-linecap="round" stroke-linejoin="round"/>
  <path d="M8.99316 16.5V20" stroke="#292D32" stroke-width="1.5" stroke-linecap="round" stroke-linejoin="round"/>
  <path d="M15.025 9.32991L15.645 10.5799C15.705 10.6999 15.825 10.7899 15.955 10.8099L17.335 11.0099C17.675 11.0599 17.815 11.4799 17.565 11.7199L16.565 12.6899C16.465 12.7799 16.425 12.9199 16.445 13.0599L16.685 14.4299C16.745 14.7699 16.385 15.0299 16.085 14.8699L14.855 14.2199C14.735 14.1599 14.585 14.1599 14.465 14.2199L13.235 14.8699C12.925 15.0299 12.575 14.7699 12.635 14.4299L12.875 13.0599C12.895 12.9199 12.855 12.7899 12.755 12.6899L11.765 11.7199C11.515 11.4799 11.655 11.0599 11.995 11.0099L13.375 10.8099C13.515 10.7899 13.625 10.7099 13.685 10.5799L14.295 9.32991C14.435 9.01991 14.875 9.01991 15.025 9.32991Z" stroke="#292D32" stroke-width="1.5" stroke-linecap="round" stroke-linejoin="round"/>
</svg>

<svg viewBox="0 0 24 24" fill="none" xmlns="http://www.w3.org/2000/svg" height="1em" width="1em">
  <path d="M16.995 4h-10c-3.83 0-4.9.92-4.99 4.5 1.93 0 3.49 1.57 3.49 3.5s-1.56 3.49-3.49 3.5c.09 3.58 1.16 4.5 4.99 4.5h10c4 0 5-1 5-5V9c0-4-1-5-5-5ZM8.993 4v3.5m0 9V20" stroke="#292D32" stroke-width="1.5" stroke-linecap="round" stroke-linejoin="round"/>
  <path d="m15.025 9.33.62 1.25c.06.12.18.21.31.23l1.38.2c.34.05.48.47.23.71l-1 .97c-.1.09-.14.23-.12.37l.24 1.37c.06.34-.3.6-.6.44l-1.23-.65a.445.445 0 0 0-.39 0l-1.23.65c-.31.16-.66-.1-.6-.44l.24-1.37a.422.422 0 0 0-.12-.37l-.99-.97a.416.416 0 0 1 .23-.71l1.38-.2c.14-.02.25-.1.31-.23l.61-1.25c.14-.31.58-.31.73 0Z" stroke="#292D32" stroke-width="1.5" stroke-linecap="round" stroke-linejoin="round"/>
</svg>
